Sources/FrostedUI/Resources/Icons.xcassets/squareAdd16.imageset/square-add-16.svg

<svg width="16" height="16" viewBox="0 0 16 16" fill="none" xmlns="http://www.w3.org/2000/svg" data-fui-icon="true">
  <path
    d="M12.167 1.75C13.3174 1.75018 14.2498 2.68268 14.25 3.83301V7.5C14.25 7.91421 13.9142 8.25 13.5 8.25C13.0858 8.25 12.75 7.91421 12.75 7.5V3.83301C12.7498 3.51109 12.4889 3.25018 12.167 3.25H3.83301C3.5111 3.25018 3.25018 3.5111 3.25 3.83301V12.167C3.25018 12.4889 3.51109 12.7498 3.83301 12.75H8.16699C8.58106 12.7502 8.91699 13.0859 8.91699 13.5C8.91699 13.9141 8.58106 14.2498 8.16699 14.25H3.83301C2.68268 14.2498 1.75018 13.3174 1.75 12.167V3.83301C1.75018 2.68267 2.68267 1.75018 3.83301 1.75H12.167ZM12.167 8.75C12.5811 8.75018 12.917 9.0859 12.917 9.5V10.75H14.167C14.5811 10.7502 14.917 11.0859 14.917 11.5C14.917 11.9141 14.5811 12.2498 14.167 12.25H12.917V13.5C12.917 13.9141 12.5811 14.2498 12.167 14.25C11.7528 14.25 11.417 13.9142 11.417 13.5V12.25H10.167C9.75278 12.25 9.41699 11.9142 9.41699 11.5C9.41699 11.0858 9.75278 10.75 10.167 10.75H11.417V9.5C11.417 9.08579 11.7528 8.75 12.167 8.75Z"
    fill="currentColor"
  />
</svg>

<svg xmlns="http://www.w3.org/2000/svg" width="16" height="16" fill="none" data-fui-icon="true" viewBox="0 0 16 16"><path fill="currentColor" d="M12.167 1.75c1.15 0 2.083.933 2.083 2.083V7.5a.75.75 0 0 1-1.5 0V3.833a.583.583 0 0 0-.583-.583H3.833a.583.583 0 0 0-.583.583v8.334c0 .322.261.583.583.583h4.334a.75.75 0 0 1 0 1.5H3.833a2.083 2.083 0 0 1-2.083-2.083V3.833c0-1.15.933-2.083 2.083-2.083zm0 7a.75.75 0 0 1 .75.75v1.25h1.25a.75.75 0 0 1 0 1.5h-1.25v1.25a.75.75 0 0 1-1.5 0v-1.25h-1.25a.75.75 0 0 1 0-1.5h1.25V9.5a.75.75 0 0 1 .75-.75"/></svg>
